packages/foundations/assets/icons/functional/images/file/folder_16.svg

<svg width="16" height="16" viewBox="0 0 16 16" fill="none" xmlns="http://www.w3.org/2000/svg">
<g clip-path="url(#clip0_185_936)">
<path fill-rule="evenodd" clip-rule="evenodd" d="M6.44447 3.20001H4.00002C3.11637 3.20001 2.40002 3.91636 2.40002 4.80001V11.2C2.40002 12.0837 3.11637 12.8 4.00002 12.8H12C12.8837 12.8 13.6 12.0837 13.6 11.2V6.00001C13.6 5.07633 12.8435 4.40001 12 4.40001H7.94002L7.02072 3.4451C6.86992 3.2885 6.66188 3.20001 6.44447 3.20001ZM4.00002 4.80001H6.10482L7.02377 5.75493C7.17457 5.91153 7.38262 6.00001 7.60002 6.00001H12V11.2H4.00002V4.80001Z" fill="#1A1C1F"/>
</g>
<defs>
<clipPath id="clip0_185_936">
<rect width="16" height="16" fill="white"/>
</clipPath>
</defs>
</svg>

<svg xmlns="http://www.w3.org/2000/svg" width="16" height="16" fill="none"><g clip-path="url(#a)"><path fill="#1A1C1F" fill-rule="evenodd" d="M6.444 3.2H4a1.6 1.6 0 0 0-1.6 1.6v6.4A1.6 1.6 0 0 0 4 12.8h8a1.6 1.6 0 0 0 1.6-1.6V6A1.6 1.6 0 0 0 12 4.4H7.94l-.92-.955a.8.8 0 0 0-.576-.245M4 4.8h2.105l.919.955A.8.8 0 0 0 7.6 6H12v5.2H4z" clip-rule="evenodd"/></g><defs><clipPath id="a"><path fill="#fff" d="M0 0h16v16H0z"/></clipPath></defs></svg>
